!!!COM: Scarlatti, Domenico
!!!CDT: 1685-1757
!!!OTL: Sonata in D major, L.11, K.534
!!!SCT: K. 534
!!!SCT: L. 011
!!!OMD: Cantabile ([quarter]=100)
**kern	**kern	**dynam
*staff2	*staff1	*staff1/2
*Icemba	*Icemba	*
*I"L.11 (K.534)	*I"L.11 (K.534)	*
*>[A,A,B,B]	*>[A,A,B,B]	*>[A,A,B,B]
*>norep[A,B]	*>norep[A,B]	*>norep[A,B]
*>A	*>A	*>A
*clefF4	*clefG2	*
*k[f#c#]	*k[f#c#]	*
*D:	*D:	*
*met(c)	*met(c)	*
*M4/4	*M4/4	*
*MM100	*MM100	*
=1-	=1-	=1-
!	!	!LO:DY:a=2:rj
([4DMM	1r	f
16DLL]	.	.
32EL	.	.
32F#	.	.
32G	.	.
32A	.	.
32B	.	.
32c#JJJ	.	.
4d)	.	.
(8.c#tL	.	.
32BLL	.	.
32c#JJJ	.	.
=2	=2	=2
4d	([4d	f
4B	16dLL]	.
.	32eL	.
.	32f#	.
.	32g	.
.	32a	.
.	32b	.
.	32cc#JJJ	.
4G	4dd)	.
4A	(8.cc#tL	.
.	32bLL	.
.	32cc#JJJ	.
!!LO:LB:g=z
=3	=3	=3
.	(8eeq	.
4D)	8ddL)	.
.	8cc#J)	.
.	(8cc#q	.
!	!	!LO:DY:rj
(2d	(8bL<)	mf
.	8aJ)	.
.	(>(16aqq	.
.	8gL)	.
.	16f#L	.
.	16gJJ	.
.	(8bq	.
4c#	8aL)	.
.	8eJ	.
=4	=4	=4
*	*^	*
4B)	4r	(8dL)	.
.	.	8e	.
(4B	&([4dd	8f#	.
.	.	8g#J	.
4A	8ddL]	2a	.
.	8b	.	.
4F#	8cc#	.	.
.	8dd#J	.	.
*	*v	*v	*
=5	=5	=5
([4E)	8.g#@) 8.eeL	f
.	32dd#LL	.
.	32cc#JJJ	.
16ELL]	4b&)	.
32F#L	.	.
32G#	.	.
32A	.	.
32B	.	.
32c#	.	.
32d#JJJ)	.	.
4e	2r	.
(8.d#tL	.	.
32c#LL	.	.
32d#JJJ	.	.
!!LO:LB:g=z
=6	=6	=6
4e	([4e	.
4c#	16eLL]	.
.	32f#L	.
.	32g#	.
.	32a	.
.	32b	.
.	32cc#	.
.	32dd#JJJ	.
4A	4ee)	.
4B	(8.dd#tL	.
.	32cc#LL	.
.	32dd#JJJ	.
=7	=7	=7
*^	*	*
.	.	(8ff#q	.
4E)	[1E	8eeL)	.
.	.	8dd#J)	.
.	.	(8ddq	.
!	!	!	!LO:DY:rj
(2e	.	(8cc#L)	mf
.	.	8bJ)	.
.	.	(>(16bqq	.
.	.	8aL)	.
.	.	16g#L	.
.	.	16aJJ	.
.	.	(16cc#qq	.
[4dn	.	8bL)	.
.	.	16a'L	.
.	.	16g#'JJ	.
=8	=8	=8	=8
.	.	(16f#qq	.
4d]	2E]	4.e))	p
4cn)	.	.	.
.	.	(8ee	.
(4d	(4D	8ffnL	.
.	.	8ddJ)	.
.	.	(8ddq	.
4e	4E	(8ccnL)	.
.	.	8bJ)	.
!!LO:LB:g=z
=9	=9	=9	=9
.	.	(16bqq	.
!	!	!	!LO:DY:b=2:rj
!	!	!	!LO:HP:b=2
8fnL	4Fn	2a)	mf >
8d	.	.	.
8cn	8EL	.	]
8BJ	8DJ	.	.
4A)	4Cn)	(8eeL	mf >
.	.	8ccnJ)	.
.	.	(8ccq	.
4ryy	(<4D 4A 4B	(8bL<)	.
.	.	8aJ)	]]
*v	*v	*	*
=10	=10	=10
4E) 4B	([8g#Lm	sf
.	32g#LL]	p
.	32f#	<
.	32g#	.
.	32aJJJ	.
([8BLM	4b/)	.
32BLL]	.	.
32A	.	.
32B	.	.
32c#JJJ	.	.
4d)	([8bLM	.
.	32bLL]	.
.	32a	.
.	32b	.
.	32cc#JJJ	.
([8G#Lm	4dd)	.
32G#LL]	.	.
32F#	.	.
32G#	.	.
32AJJJ	.	.
!!LO:LB:g=z
=11	=11	=11
4B)	([8ddLM	f
.	32ddLL]	.
.	32cc#	.
.	32dd	.
.	32eeJJJ	.
([8DL>M	[4ff#	.
32DLL]	.	.
32C#	.	.
32D	.	.
64EL	.	.
64F#JJJJ	.	.
4G#	8ff#L]	.
.	8eeJ)	.
.	(8ff#q	.
4E)	8eeL)	.
.	8ddJ	.
=12	=12	=12
.	(8eeq	.
4AA 4A	(8ddL)	.
.	8cc#J)	.
.	(8ddq	.
(<4D 4A 4B	(8cc#L)	>
.	8bJ)	.
.	(8cc#q	.
4E) 4A 4c#	(8bL)	.
.	8aJ)	.
.	(8bq	.
4E 4A 4B	(8aL)	.
.	8g#J)	.
=13	=13	=13
*^	*	*
(8AL	(1A	4aMM	p
8gn	.	.	.
8fn	.	4aMM	.
8eJ	.	.	.
8dL	.	4aMM	.
8f	.	.	.
8e	.	4aMM< 4ffn@	.
8dJ	.	.	.
!!LO:LB:g=z
=14	=14	=14	=14
*	*	*^	*
2e	(>8cnL	4ryy	8eeL	.
.	8B	.	8ddJ	.
.	.	.	(32ddqq\	.
.	8A	4ee	(8ccnL)	.
.	8GJ	.	8bJ	.
.	.	(32eeqq	.	.
4e	2Fn))	8ddL)	2a)	.
.	.	8cc	.	.
4d)	.	8b	.	.
.	.	8aJ	.	.
*v	*v	*	*	*
*	*v	*v	*
=15	=15	=15
4E 4e	([8g#Lm	sf
.	32g#LL]	.
.	32f#	p
.	32g#	<
.	32aJJJ)	.
([8BLM	4b	.
32BLL]	.	.
32A	.	.
32B	.	.
32c#JJJ	.	.
4d)	([8bL>M	.
.	32bLL]	.
.	32a	.
.	32b	.
.	32cc#JJJ)	.
([8G#Lm	4dd	.
32G#LL]	.	.
32F#	.	.
32G#	.	.
32AJJJ	.	.
=16	=16	=16
4B)	([8ddLM	f
.	32ddLL]	.
.	32cc#	.
.	32dd	.
.	32eeJJJ	.
([8DLM	[4ff#	.
32DLL]	.	.
32C#	.	.
32D	.	.
64EL	.	.
64F#JJJJ	.	.
4G#	8ff#L]	.
.	8eeJ)	.
.	(8ff#q	.
4E)	(8eeL)	.
.	8ddJ)	.
!!LO:LB:g=z
=17	=17	=17
.	(8eeq	.
4AA 4A	(8ddL)	.
.	8cc#J)	.
.	(8ddq	.
(<4D 4A 4B	(8cc#L)	>
.	8bJ)	.
.	(8cc#q	.
4E) 4A 4c#	(8bL)	.
.	8aJ))	.
.	(8bq	.
(<4E 4A 4B	(8aL)	.
.	8g#J)	.
=18	=18	=18
4F#) 4A 4d	(8aL	mf
.	8aaJ)	.
.	(16gg#qq	.
4D 4A 4B	8ff#L)	p
.	(16eeqq	.
.	8ddJ)	.
.	(16ddqq	.
(4E	(8cc#L)	.
.	16bL	.
.	16aJJ)	.
4EE	(8.bTL<	.
.	32aLL	.
.	32bJJJ	.
=19	=19	=19
1AAA)	1a)	.
=20:|!|:	=20:|!|:	=20:|!|:
*>B	*>B	*>B
4AAA	([4a	f
4AAA	16aLL]	.
.	32bL	.
.	32cc#	.
.	32dd	.
.	32ee	.
.	32ffn	.
.	32ggJJJ	.
4AAA	8aa'L)	.
.	8b- (8gg	p
4AAA	8a 8ff	.
.	8g 8eeJ	.
!!LO:LB:g=z
=21	=21	=21
4AAA	8fn 8ddL	.
.	8e 8ccn	.
4AAA	8d 8b-	.
.	8cn 8aJ	.
4AAA	8B- 8gL	.
.	8A 8f	.
4AAA	8G 8e	.
.	8Fn 8dJ)	.
=22	=22	=22
*	*^	*
4AAA	(8dL	4E	.
.	8BnJ	.	.
(16AALL	4c#X)	4ryy	f
32BBL	.	.	.
32C#	.	.	.
32D	.	.	.
32E	.	.	.
32F#	.	.	.
32GJJJ	.	.	.
4A)	2r	2r	.
(8.GTL	.	.	.
32F#LL	.	.	.
32GJJJ	.	.	.
*	*v	*v	*
=23	=23	=23
4F#)	([4d	.
4F#	16dLL]	.
.	32eL	.
.	32f#	.
.	32g	.
.	32a	.
.	32b	.
.	32cc#JJJ	.
.	(8eeq	.
4Fn 4d	8ddL)	.
.	8ccnJ)	.
.	(8ddq	.
(<4F 4d	(8ccL)	.
.	8bJ	.
!!LO:LB:g=z
=24	=24	=24
4E) 4cn	8ccn)	.
.	(16ffnqq	.
.	(4ee)	mf
(<4E 4c	.	.
.	16ddLL	.
.	16ccJJ	.
4D) 4B-	8b-)	.
.	(16eeqq	.
.	()4dd	.
(<4D 4B-	.	.
.	16ccLL	.
.	16b-JJ	.
=25	=25	=25
*^	*	*
4ryy	4C#X) 4A	8a\)	.
.	.	4aa	.
2A	(4D	.	.
.	.	(16ggqq	.
.	.	([8ffn)	.
.	2BB-	8ffL]	.
.	.	16eeL	.
.	.	16ggJJ)	.
.	.	(16ff#qq	.
4G	.	(8eeL)	.
.	.	8ddJ)	.
*v	*v	*	*
=26	=26	=26
4AA) 4A	([8cc#Lm	sf
.	32cc#LL]	p
.	32b	<
.	32cc#	.
.	32ddJJJ	.
([8eLM	4ee)	.
32eLL]	.	.
32d	.	.
32e	.	.
32f#JJJ	.	.
4g)	([8eeLM	.
.	32eeLL]	.
.	32dd	.
.	32ee	.
.	32ff#JJJ	.
([8c#Lm	4gg)	.
32c#LL]	.	.
32B	.	.
32c#	.	.
32dJJJ	.	.
!!LO:LB:g=z
=27	=27	=27
4e)	([8ggLM	f
.	32ggLL]	.
.	32ff#	.
.	32gg	.
.	32aaJJJ	.
(8GLM	[4bb	.
32GLL	.	.
32F#	.	.
32G	.	.
64AL	.	.
64BJJJJ	.	.
4c#	8bbL]	.
.	8aaJ)	.
.	(8bbq	.
4A)	(8aaL)	.
.	8ggJ)	.
=28	=28	=28
.	(8ggq	.
4D 4d	(8ggL)	.
.	8ff#J)	.
.	(8ggq	.
(<4G 4d 4e	(8ff#L)	>
.	8eeJ)	.
.	(8ff#q	.
4A) 4d 4f#	(8eeL)	.
.	8ddJ)	.
.	(8eeq	.
4A 4d 4e	(8ddL)	.
.	8cc#J)	.
*clefG2	*	*
=29	=29	=29
*^	*	*
(8dL	(1d	4ddMM	p
8ccn	.	.	.
8b-	.	4ddMM	.
8aJ	.	.	.
8gL	.	4ddMM	.
8b-	.	.	.
8a	.	4ddMM<@ 4bb-	.
8gJ	.	.	.
!!LO:LB:g=z
=30	=30	=30	=30
*	*	*^	*
[2a	8fnL	4ryy	(8aaL	.
.	8e	.	8ggJ)	.
.	.	.	.	.
.	.	.	(32ggqq\	.
.	8d	4aa	(8ff#L)	.
.	8cnJ	.	8eeJ	.
.	.	(32aaqq	.	.
4a]	2B-)	(8ggL)	2dd)	.
.	.	8ffn	.	.
4g)	.	8ee	.	.
.	.	8ddJ)	.	.
*v	*v	*	*	*
*	*v	*v	*
=31	=31	=31
4A 4a	([8cc#Lm	sf
.	32cc#LL]	p
.	32b	<
.	32cc#	.
.	32ddJJJ	.
*clefF4	*	*
([8eLM	4ee)	.
32eLL]	.	.
32d	.	.
32e	.	.
32f#JJJ	.	.
4g)	([8eeLM	.
.	32eeLL]	.
.	32dd	.
.	32ee	.
.	32ff#JJJ	.
([8c#Lm	4gg)	.
32c#LL]	.	.
32B	.	.
32c#	.	.
32dJJJ	.	.
!!LO:LB:g=z
=32	=32	=32
4e)	(8ggLM	.
.	32ggLL	.
.	32ff#	.
.	32gg	.
.	32aaJJJ	.
(8GLM	[4bb	.
32GLL	.	.
32F#	.	.
32G	.	.
64AL	.	.
64BJJJJ	.	.
4c#	8bbL]	.
.	8aaJ)	.
.	(8bbq	.
4A)	(8aaL)	.
.	8ggJ)	.
=33	=33	=33
.	(8aaq	.
4D 4d	(8ggL)	.
.	8ff#J)	.
.	(8ggq	.
(<4G 4d 4e	(8ff#L)	>
.	8eeJ)	.
.	(8ff#q	.
4A) 4d 4f#	(8eeL)	.
.	8ddJ)	.
.	(8eeq	.
4A 4d 4e	(8ddL)	.
.	8cc#J)	.
=34	=34	=34
4B 4d 4g	(8ddL	mf
.	8dddJ)	.
.	(16ccc#qq	.
4G 4d 4e	8bbL))	p
.	(16aaqq	.
.	8ggJ))	.
.	(16ggqq	.
(4A	(8ff#L)	.
.	16eeL	.
.	16ddJJ)	.
4AA	(8.eeTL	.
.	32ddLL	.
.	32eeJJJ	.
=35	=35	=35
1DD)	1dd)	.
==:|!	==:|!	==:|!
*-	*-	*-
!!!RDF**kern: > = above
!!!RDF**kern: < = below
!!!RDF**kern: @ = marked note, color="silver", optional note
!!!verovio: beamFrenchStyle 1
!!!URL-vhv: https://verovio.humdrum.org/?file=scarlatti/sonatas/L011K534.krn
!!!URL-pdf: https://github.com/craigsapp/scarlatti-keyboard-sonatas/blob/master/reference-edition/L011K534.pdf
!!!PTL: Domenico Scarlatti: Opere complete per clavicembalo
!!!PED: Longo, Alessandro
!!!PPR: Ricordi
!!!PPP: Milan
!!!PDT: 1906-1913
!!!YEC: 2021 Craig Stuart Sapp
!!!YEM: Licence: (CC BY-NC-SA 4.0) https://creativecommons.org/licenses/by-nc-sa/4.0
!!!ENC: Kelly Leistikow and Craig Stuart Sapp
!!!END: 2005/06/26
!!!EED: Craig Stuart Sapp
!!!EEV: 2020/12/18
